X: 37134
T: Singing Kettle, The
R: reel
M: 4/4
K: Edorian
|:D|E3F EDB,A,|B,EED EGFE|D3E DB,A,B,|DEFA BdAF|
E3F EDB,A,|B,EED EGFE|D2 FA dfec|dBAF FEE:|
|:A|Bdef gfec|dB~B2 AFEF|D3E DB,A,B,|DEFA BdAd|
Bdef gfec|dB~B2 AFEF|G2BG FGA=c|BGAF GEE:|

